svg/fluentui-system-icons/ic_fluent_text_column_one_narrow_20_regular.svg

<svg width="20" height="20" viewBox="0 0 20 20" fill="none" xmlns="http://www.w3.org/2000/svg">
<path d="M7.5 5C7.22386 5 7 5.22386 7 5.5C7 5.77614 7.22386 6 7.5 6H12.5C12.7761 6 13 5.77614 13 5.5C13 5.22386 12.7761 5 12.5 5H7.5ZM7.5 8C7.22386 8 7 8.22386 7 8.5C7 8.77614 7.22386 9 7.5 9H12.5C12.7761 9 13 8.77614 13 8.5C13 8.22386 12.7761 8 12.5 8H7.5ZM7 11.5C7 11.2239 7.22386 11 7.5 11H12.5C12.7761 11 13 11.2239 13 11.5C13 11.7761 12.7761 12 12.5 12H7.5C7.22386 12 7 11.7761 7 11.5ZM7.5 14C7.22386 14 7 14.2239 7 14.5C7 14.7761 7.22386 15 7.5 15H12.5C12.7761 15 13 14.7761 13 14.5C13 14.2239 12.7761 14 12.5 14H7.5Z" fill="#212121"/>
</svg>

<svg xmlns="http://www.w3.org/2000/svg" width="20" height="20"><path d="M7.5 5a.5.5 0 0 0 0 1h5a.5.5 0 0 0 0-1h-5Zm0 3a.5.5 0 0 0 0 1h5a.5.5 0 0 0 0-1h-5ZM7 11.5a.5.5 0 0 1 .5-.5h5a.5.5 0 0 1 0 1h-5a.5.5 0 0 1-.5-.5Zm.5 2.5a.5.5 0 0 0 0 1h5a.5.5 0 0 0 0-1h-5Z"/></svg>
